www/assets/icons/subtitles_off.svg

<svg width="24" height="24" viewBox="0 0 24 24" xmlns="http://www.w3.org/2000/svg" fill='currentColor'><path d="M20.48 3.29512H7.31002L15.31 11.2951H20.48V13.2951H17.31L22.24 18.2251C22.39 17.9451 22.48 17.6351 22.48 17.2951V5.29512C22.48 4.19512 21.58 3.29512 20.48 3.29512Z"/><path d="M1.52002 3.16512L2.72002 4.36512C2.57002 4.64512 2.48002 4.95512 2.48002 5.29512V17.2951C2.48002 18.3951 3.38002 19.2951 4.48002 19.2951H17.65L20.61 22.2551L22.02 20.8451L2.93002 1.74512L1.52002 3.16512ZM8.48002 11.2951V13.2951H4.48002V11.2951H8.48002ZM14.48 16.1251V17.2951H4.48002V15.2951H13.65L14.48 16.1251Z"/></svg>

<svg xmlns="http://www.w3.org/2000/svg" width="24" height="24" viewBox="0 0 24 24" fill='currentColor'><path d="M20.48 3.295H7.31l8 8h5.17v2h-3.17l4.93 4.93c.15-.28.24-.59.24-.93v-12c0-1.1-.9-2-2-2m-18.96-.13 1.2 1.2c-.15.28-.24.59-.24.93v12c0 1.1.9 2 2 2h13.17l2.96 2.96 1.41-1.41-19.09-19.1zm6.96 8.13v2h-4v-2zm6 4.83v1.17h-10v-2h9.17z"/></svg>
